X:1
T:Heri Mundus Exultavit, 88.78.87
T:Heri Mundus Exultavit, 88.78.87
T:Walter Macfarren, 1868
T:Public Domain Courtesy of the Cyber Hymnal™
C:Walter Macfarren, 1868
Z:Public Domain
Z:Courtesy of the Cyber Hymnal™
%%score ( 1 2 ) ( 3 4 )
L:1/8
Q:1/4=110
M:none
K:F
V:1 treble 
V:2 treble 
V:3 bass 
V:4 bass 
V:1
 [CF]3 [CF] [DF]2 [DF]2 | [DG]2 [FG]2 [EG]2 [CG]2 | [FA]3 [FA] [FA]2 [FA]2 | %3
 [GB]2 [GB]2 [GB]2 [FA]2 | [Fd]4 [Ge]4 | [Ff]6 [Af]2 | [Ge]4 [Fd]4 | [Ec]8 | %8
 [Fd]3 [Fd] [Gd]2 [Gd]2 | [Gc]2 [FB]2 [EA]2 [FA]2 | [GB]3 [GB] [GB]2 [GB]2 | %11
 [EA]2 [^CG]2 [DF]2 [EG]2 | [FA]4 [FB]4 | [Fc]6 [Ff]2 x | [FA]4 [EG]4 | F8 |] %16
V:2
 x8 | x8 | x8 | x8 | x8 | x8 | x8 | x8 | x8 | x8 | x8 | x8 | x8 | x9 | x8 | F8 |] %16
V:3
 [F,A,]3 [F,A,] [D,A,]2 [D,A,]2 | [B,,G,]2 [=B,,G,]2 [C,G,]2 [E,C]2 | [F,C]3 [F,C] [D,D]2 [D,D]2 | %3
 [G,D]2 [F,D]2 [E,C]2 [F,C]2 | [B,D]4 [B,C]4 | [A,C]6 [D,C]2 | [G,C]4 [G,=B,]4 | [C,C]8 | %8
 B,3 [A,B,] [G,B,]2 [F,B,]2 | [E,C]2 [D,D]2 [^C,E]2 [D,D]2 | [G,D]3 [F,D] [E,^C]2 [D,D]2 | %11
 [^C,E]2 [A,,A,]2 [D,A,]2 [=C,=C]2 | [F,C]4 [G,C]4 | [A,C]6 =B,2 x | [C,C]4 [C,B,]4 | [F,,A,]8 |] %16
V:4
 x8 | x8 | x8 | x8 | x8 | x8 | x8 | x8 | B,3 x5 | x8 | x8 | x8 | x8 | x6 D,3 | x8 | x8 |] %16

